static/solaris.svg

<?xml version="1.0" encoding="UTF-8"?>
<svg width="92px" height="166px" viewBox="0 0 92 166" version="1.1" xmlns="http://www.w3.org/2000/svg" xmlns:xlink="http://www.w3.org/1999/xlink">
    <!-- Generator: Sketch 52.6 (67491) - http://www.bohemiancoding.com/sketch -->
    <title>Solaris Logo_158 Orange</title>
    <desc>Created with Sketch.</desc>
    <defs>
        <polygon id="path-1" points="0.06 0.007 9.59 0.007 9.59 12.746 0.06 12.746"></polygon>
    </defs>
    <g id="Page-1" stroke="none" stroke-width="1" fill="none" fill-rule="evenodd">
        <g id="ST2_Stage1_Revision-Copy" transform="translate(-674.000000, -2863.000000)">
            <g id="Solaris-Logo_158-Orange" transform="translate(674.000000, 2863.000000)">
                <g id="Group-3" transform="translate(0.000000, 128.000000)">
                    <mask id="mask-2" fill="white">
                        <use xlink:href="#path-1"></use>
                    </mask>
                    <g id="Clip-2"></g>
                    <path d="M0,10.764 L1.309,9.207 C2.494,10.233 3.68,10.817 5.22,10.817 C6.564,10.817 7.414,10.198 7.414,9.26 L7.414,9.225 C7.414,8.34 6.918,7.863 4.618,7.332 C1.981,6.694 0.495,5.916 0.495,3.633 L0.495,3.598 C0.495,1.474 2.265,0.007 4.724,0.007 C6.529,0.007 7.962,0.554 9.219,1.563 L8.051,3.209 C6.936,2.377 5.822,1.934 4.689,1.934 C3.415,1.934 2.671,2.589 2.671,3.403 L2.671,3.438 C2.671,4.395 3.238,4.818 5.609,5.385 C8.228,6.022 9.59,6.96 9.59,9.013 L9.59,9.048 C9.59,11.366 7.768,12.746 5.167,12.746 C3.273,12.746 1.486,12.091 0,10.764" id="Fill-1" fill="#8B634A" mask="url(#mask-2)"></path>
                </g>
                <path d="M24.382,134.412 L24.382,134.376 C24.382,131.97 22.631,129.97 20.171,129.97 C17.712,129.97 15.995,131.934 15.995,134.341 L15.995,134.376 C15.995,136.782 17.747,138.782 20.207,138.782 C22.667,138.782 24.382,136.817 24.382,134.412 Z M13.713,134.412 L13.713,134.376 C13.713,130.891 16.403,127.971 20.207,127.971 C24.011,127.971 26.666,130.855 26.666,134.341 L26.666,134.376 C26.666,137.862 23.976,140.782 20.171,140.782 C16.367,140.782 13.713,137.897 13.713,134.412 Z" id="Fill-4" fill="#8B634A"></path>
                <polyline id="Fill-5" fill="#8B634A" points="31.425 128.184 33.601 128.184 33.601 138.587 40.113 138.587 40.113 140.57 31.425 140.57 31.425 128.184"></polyline>
                <path d="M52.003,135.65 L49.862,130.695 L47.738,135.65 L52.003,135.65 Z M48.889,128.095 L50.906,128.095 L56.355,140.57 L54.056,140.57 L52.8,137.579 L46.942,137.579 L45.669,140.57 L43.439,140.57 L48.889,128.095 Z" id="Fill-6" fill="#8B634A"></path>
                <path d="M65.964,134.323 C67.521,134.323 68.512,133.509 68.512,132.253 L68.512,132.218 C68.512,130.891 67.557,130.165 65.947,130.165 L62.779,130.165 L62.779,134.323 L65.964,134.323 Z M60.602,128.184 L66.124,128.184 C67.681,128.184 68.902,128.642 69.698,129.422 C70.352,130.095 70.724,131.014 70.724,132.093 L70.724,132.129 C70.724,134.164 69.503,135.385 67.769,135.879 L71.113,140.57 L68.547,140.57 L65.505,136.252 L62.779,136.252 L62.779,140.57 L60.602,140.57 L60.602,128.184 Z" id="Fill-7" fill="#8B634A"></path>
                <polygon id="Fill-8" fill="#8B634A" points="75.643 140.57 77.819 140.57 77.819 128.184 75.643 128.184"></polygon>
                <path d="M82.419,138.764 L83.729,137.207 C84.914,138.233 86.1,138.817 87.639,138.817 C88.984,138.817 89.833,138.198 89.833,137.26 L89.833,137.225 C89.833,136.34 89.338,135.863 87.038,135.332 C84.401,134.694 82.914,133.916 82.914,131.633 L82.914,131.598 C82.914,129.474 84.684,128.007 87.144,128.007 C88.949,128.007 90.382,128.554 91.638,129.563 L90.47,131.209 C89.355,130.377 88.241,129.934 87.109,129.934 C85.834,129.934 85.091,130.589 85.091,131.403 L85.091,131.438 C85.091,132.395 85.657,132.818 88.028,133.385 C90.647,134.022 92.01,134.96 92.01,137.013 L92.01,137.048 C92.01,139.366 90.187,140.746 87.586,140.746 C85.692,140.746 83.906,140.091 82.419,138.764" id="Fill-9" fill="#8B634A"></path>
                <path d="M18.871,159.63 L18.871,159.594 C18.871,156.073 21.507,153.189 25.258,153.189 C27.541,153.189 28.921,153.985 30.107,155.118 L28.709,156.728 C27.718,155.808 26.656,155.188 25.241,155.188 C22.87,155.188 21.153,157.135 21.153,159.559 L21.153,159.594 C21.153,162.018 22.87,164 25.241,164 C26.763,164 27.736,163.381 28.797,162.39 L30.195,163.805 C28.903,165.15 27.488,166 25.17,166 C21.56,166 18.871,163.186 18.871,159.63" id="Fill-10" fill="#8B634A"></path>
                <polyline id="Fill-11" fill="#8B634A" points="34.601 153.402 36.777 153.402 36.777 163.805 43.289 163.805 43.289 165.788 34.601 165.788 34.601 153.402"></polyline>
                <path d="M45.895,160.532 L45.895,153.402 L48.072,153.402 L48.072,160.443 C48.072,162.743 49.257,163.983 51.204,163.983 C53.132,163.983 54.318,162.815 54.318,160.532 L54.318,153.402 L56.494,153.402 L56.494,160.426 C56.494,164.124 54.407,165.981 51.169,165.981 C47.948,165.981 45.895,164.124 45.895,160.532" id="Fill-12" fill="#8B634A"></path>
                <path d="M67.358,163.858 C68.845,163.858 69.748,163.274 69.748,162.16 L69.748,162.124 C69.748,161.081 68.916,160.462 67.199,160.462 L63.749,160.462 L63.749,163.858 L67.358,163.858 Z M66.722,158.621 C68.119,158.621 69.058,158.073 69.058,156.94 L69.058,156.905 C69.058,155.932 68.279,155.329 66.881,155.329 L63.749,155.329 L63.749,158.621 L66.722,158.621 Z M61.608,153.402 L67.164,153.402 C68.579,153.402 69.694,153.791 70.402,154.498 C70.951,155.047 71.234,155.719 71.234,156.551 L71.234,156.586 C71.234,158.073 70.384,158.869 69.464,159.347 C70.915,159.843 71.924,160.674 71.924,162.355 L71.924,162.39 C71.924,164.602 70.102,165.788 67.341,165.788 L61.608,165.788 L61.608,153.402 Z" id="Fill-13" fill="#8B634A"></path>
                <polygon id="Fill-14" fill="#8B634A" points="44.79 109.442 47.22 109.442 47.22 16.693 44.79 16.693"></polygon>
                <path d="M76.098,77.073 C76.098,89.962 67.785,101.454 55.691,105.564 L55.691,33.657 L76.098,33.657 L76.098,77.073 Z M55.691,31.227 L55.691,22.715 L53.261,22.715 L53.261,108.815 L54.804,108.382 C68.772,104.463 78.528,91.588 78.528,77.073 L78.528,31.227 L55.691,31.227 Z" id="Fill-15" fill="#8B634A"></path>
                <path d="M36.319,105.564 C24.225,101.454 15.912,89.962 15.912,77.073 L15.912,33.657 L36.319,33.657 L36.319,105.564 Z M36.319,31.227 L13.481,31.227 L13.481,77.073 C13.481,91.588 23.237,104.463 37.205,108.382 L38.749,108.815 L38.749,22.715 L36.319,22.715 L36.319,31.227 Z" id="Fill-16" fill="#8B634A"></path>
                <path d="M51.046,5.482 C51.046,8.267 48.789,10.524 46.005,10.524 C43.221,10.524 40.964,8.267 40.964,5.482 C40.964,2.698 43.221,0.441 46.005,0.441 C48.789,0.441 51.046,2.698 51.046,5.482" id="Fill-17" fill="#8B634A"></path>
            </g>
        </g>
    </g>
</svg>

<svg viewBox="0 0 92 166" xmlns="http://www.w3.org/2000/svg" xmlns:xlink="http://www.w3.org/1999/xlink">
  <g fill="none" fill-rule="evenodd">
    <g transform="translate(0 128)">
      <path d="M0 10.8l1.3-1.6c1.2 1 2.4 1.6 3.9 1.6 1.4 0 2.2-.6 2.2-1.5v-.1c0-.9-.5-1.3-2.8-1.9C2 6.7.5 5.9.5 3.6.5 1.5 2.3 0 4.7 0 6.5 0 8 .6 9.2 1.6L8.1 3.2c-1.2-.8-2.3-1.3-3.4-1.3-1.3 0-2 .7-2 1.5 0 1 .5 1.4 2.9 2 2.6.6 4 1.6 4 3.6 0 2.4-1.8 3.7-4.4 3.7-1.9 0-3.7-.6-5.2-1.9" fill="#8b634a" mask="url(#b)" />
    </g>
    <path d="M24.4 134.4c0-2.4-1.8-4.4-4.2-4.4-2.5 0-4.2 1.9-4.2 4.3v.1c0 2.4 1.7 4.4 4.2 4.4s4.2-2 4.2-4.4zm-10.7 0c0-3.5 2.7-6.4 6.5-6.4s6.5 2.9 6.5 6.3v.1c0 3.5-2.7 6.4-6.5 6.4s-6.5-2.9-6.5-6.4zM31.4 128.2h2.2v10.4h6.5v2h-8.7v-12.4M52 135.7l-2.1-5-2.2 5H52zm-3.1-7.6h2l5.5 12.5h-2.3l-1.3-3h-5.9l-1.2 3h-2.3l5.5-12.5zM66 134.3c1.5 0 2.5-.8 2.5-2v-.1c0-1.3-.9-2-2.6-2h-3.1v4.1H66zm-5.4-6.1h5.5c1.6 0 2.8.4 3.6 1.2.7.7 1 1.6 1 2.7 0 2.1-1.2 3.3-2.9 3.8l3.3 4.7h-2.6l-3-4.3h-2.7v4.3h-2.2v-12.4zM75.6 140.6h2.2v-12.4h-2.2zM82.4 138.8l1.3-1.6c1.2 1 2.4 1.6 3.9 1.6 1.4 0 2.2-.6 2.2-1.5v-.1c0-.9-.5-1.3-2.8-1.9-2.6-.6-4.1-1.4-4.1-3.7 0-2.1 1.8-3.6 4.2-3.6 1.8 0 3.3.6 4.5 1.6l-1.1 1.6c-1.1-.8-2.3-1.3-3.4-1.3-1.3 0-2 .7-2 1.5 0 1 .6 1.4 2.9 2 2.6.6 4 1.6 4 3.6 0 2.4-1.8 3.7-4.4 3.7-1.9 0-3.7-.6-5.2-1.9M18.9 159.6c0-3.5 2.6-6.4 6.4-6.4 2.2 0 3.6.8 4.8 1.9l-1.4 1.6c-1-.9-2-1.5-3.5-1.5-2.3 0-4 1.9-4 4.4 0 2.4 1.7 4.4 4 4.4 1.6 0 2.5-.6 3.6-1.6l1.4 1.4c-1.3 1.4-2.7 2.2-5 2.2-3.6 0-6.3-2.8-6.3-6.4M34.6 153.4h2.2v10.4h6.5v2h-8.7v-12.4M45.9 160.5v-7.1h2.2v7c0 2.3 1.2 3.6 3.1 3.6 1.9 0 3.1-1.2 3.1-3.5v-7.1h2.2v7c0 3.7-2.1 5.6-5.3 5.6-3.3 0-5.3-1.9-5.3-5.5M67.4 163.9c1.4 0 2.3-.6 2.3-1.7v-.1c0-1-.8-1.6-2.5-1.6h-3.5v3.4h3.7zm-.7-5.3c1.4 0 2.4-.5 2.4-1.7 0-1-.8-1.6-2.2-1.6h-3.2v3.3h3zm-5.1-5.2h5.6c1.4 0 2.5.4 3.2 1.1.6.5.8 1.2.8 2.1 0 1.5-.8 2.3-1.7 2.7 1.4.5 2.4 1.4 2.4 3.1 0 2.2-1.8 3.4-4.6 3.4h-5.7v-12.4zM44.8 109.4h2.4V16.7h-2.4zM76.1 77.1c0 12.9-8.3 24.4-20.4 28.5V33.7h20.4v43.4zM55.7 31.2v-8.5h-2.4v86.1l1.5-.4c14-3.9 23.7-16.8 23.7-31.3V31.2H55.7zM36.3 105.6C24.2 101.5 15.9 90 15.9 77.1V33.7h20.4v71.9zm0-74.4H13.5v45.9c0 14.5 9.7 27.4 23.7 31.3l1.5.4V22.7h-2.4v8.5zM51 5.5c0 2.8-2.2 5-5 5s-5-2.2-5-5S43.2.4 46 .4s5 2.3 5 5.1" fill="#8b634a" />
  </g>
</svg>
